img/brand/Domino's_pizza.svg

<svg width="60" height="60" viewBox="0 0 60 60" fill="none" xmlns="http://www.w3.org/2000/svg">
<g clip-path="url(#clip0)">
<path d="M19.3368 19.3158L37.6057 1.1362C38.9685 -0.219938 40.5154 -0.476505 42.1729 1.1362L59.1527 18.033C60.3681 19.2425 60.2576 21.0751 59.1527 22.1747L22.2097 58.9004C20.8838 60.2199 19.1526 60.4398 17.6057 58.9004L0.99426 42.3702C-0.331707 41.0507 -0.22121 38.9615 0.99426 37.752L19.3368 19.3158Z" fill="white"/>
<path d="M19.6317 21.1851L38.7477 40.2077L21.3628 57.5076C20.2946 58.5705 19.1897 58.6072 18.0847 57.5076L2.17309 41.6738C1.17861 40.6841 1.25228 39.5846 2.17309 38.6683L19.6317 21.1851Z" fill="#006491"/>
<path d="M39.9632 39.0715L20.8472 20.0489L38.2321 2.74892C39.3002 1.686 40.4052 1.64935 41.5102 2.74892L57.4218 18.5828C58.4162 19.5724 58.3426 20.672 57.4218 21.5883L39.9632 39.0715Z" fill="#E31837"/>
<path d="M39.8527 24.7771C42.4565 24.7771 44.5673 22.6766 44.5673 20.0855C44.5673 17.4945 42.4565 15.394 39.8527 15.394C37.249 15.394 35.1382 17.4945 35.1382 20.0855C35.1382 22.6766 37.249 24.7771 39.8527 24.7771Z" fill="white"/>
<path d="M26.6298 44.8992C29.2336 44.8992 31.3444 42.7987 31.3444 40.2077C31.3444 37.6166 29.2336 35.5162 26.6298 35.5162C24.0261 35.5162 21.9153 37.6166 21.9153 40.2077C21.9153 42.7987 24.0261 44.8992 26.6298 44.8992Z" fill="white"/>
<path d="M12.8544 44.8992C15.4582 44.8992 17.569 42.7987 17.569 40.2077C17.569 37.6166 15.4582 35.5162 12.8544 35.5162C10.2507 35.5162 8.13989 37.6166 8.13989 40.2077C8.13989 42.7987 10.2507 44.8992 12.8544 44.8992Z" fill="white"/>
</g>
<defs>
<clipPath id="clip0">
<rect width="60" height="60" fill="white"/>
</clipPath>
</defs>
</svg>

<svg width="60" height="60" viewBox="0 0 60 60" fill="none" xmlns="http://www.w3.org/2000/svg"><g clip-path="url(#clip0)"><path d="M19.337 19.316l18.269-18.18c1.362-1.356 2.91-1.613 4.567 0l16.98 16.897c1.215 1.21 1.105 3.042 0 4.142L22.21 58.9c-1.326 1.32-3.057 1.54-4.604 0L.994 42.37c-1.326-1.32-1.215-3.408 0-4.618l18.343-18.436z" fill="#fff"/><path d="M19.632 21.185l19.116 19.023-17.385 17.3c-1.068 1.063-2.173 1.1-3.278 0L2.173 41.674c-.994-.99-.92-2.09 0-3.006l17.459-17.483z" fill="#006491"/><path d="M39.963 39.072L20.847 20.049l17.385-17.3c1.068-1.063 2.173-1.1 3.278 0l15.912 15.834c.994.99.92 2.089 0 3.005L39.963 39.071z" fill="#E31837"/><path d="M39.853 24.777c2.603 0 4.714-2.1 4.714-4.692 0-2.59-2.11-4.691-4.714-4.691-2.604 0-4.715 2.1-4.715 4.691 0 2.592 2.111 4.692 4.715 4.692zM26.63 44.9c2.604 0 4.714-2.101 4.714-4.692s-2.11-4.692-4.714-4.692c-2.604 0-4.715 2.1-4.715 4.692 0 2.59 2.111 4.691 4.715 4.691zm-13.776 0c2.604 0 4.715-2.101 4.715-4.692s-2.11-4.692-4.715-4.692c-2.603 0-4.714 2.1-4.714 4.692 0 2.59 2.11 4.691 4.714 4.691z" fill="#fff"/></g><defs><clipPath id="clip0"><path fill="#fff" d="M0 0h60v60H0z"/></clipPath></defs></svg>
